icons/svg/shields/h_barrier_cycle_barrier_shield.svg

<?xml version="1.0" encoding="UTF-8" standalone="no"?>
<!-- Created with Inkscape (http://www.inkscape.org/) -->

<svg
   xmlns:dc="http://purl.org/dc/elements/1.1/"
   xmlns:cc="http://creativecommons.org/ns#"
   xmlns:rdf="http://www.w3.org/1999/02/22-rdf-syntax-ns#"
   xmlns:svg="http://www.w3.org/2000/svg"
   xmlns="http://www.w3.org/2000/svg"
   xmlns:sodipodi="http://sodipodi.sourceforge.net/DTD/sodipodi-0.dtd"
   xmlns:inkscape="http://www.inkscape.org/namespaces/inkscape"
   version="1.0"
   width="16"
   height="16"
   id="svg2"
   sodipodi:version="0.32"
   inkscape:version="0.91 r13725"
   sodipodi:docname="h_barrier_cycle_barrier_shield.svg"
   inkscape:output_extension="org.inkscape.output.svg.inkscape">
  <metadata
     id="metadata10">
    <rdf:RDF>
      <cc:Work
         rdf:about="">
        <dc:format>image/svg+xml</dc:format>
        <dc:type
           rdf:resource="http://purl.org/dc/dcmitype/StillImage" />
        <cc:license
           rdf:resource="http://web.resource.org/cc/PublicDomain" />
        <dc:language>en</dc:language>
        <dc:title />
      </cc:Work>
    </rdf:RDF>
  </metadata>
  <sodipodi:namedview
     inkscape:window-height="1006"
     inkscape:window-width="1920"
     inkscape:pageshadow="2"
     inkscape:pageopacity="0.0"
     guidetolerance="10.0"
     gridtolerance="10.0"
     objecttolerance="10.0"
     borderopacity="1.0"
     bordercolor="#666666"
     pagecolor="#ffffff"
     id="base"
     showgrid="false"
     inkscape:zoom="11.313708"
     inkscape:cx="13.466847"
     inkscape:cy="4.4781182"
     inkscape:window-x="1920"
     inkscape:window-y="0"
     inkscape:current-layer="svg2"
     inkscape:window-maximized="1" />
  <defs
     id="defs4">
    <inkscape:perspective
       sodipodi:type="inkscape:persp3d"
       inkscape:vp_x="0 : 290 : 1"
       inkscape:vp_y="0 : 1000 : 0"
       inkscape:vp_z="580 : 290 : 1"
       inkscape:persp3d-origin="290 : 193.33333 : 1"
       id="perspective12" />
    <style
       type="text/css"
       id="style6">
   
    .fil0 {fill:#EF7900}
   
  </style>
    <inkscape:perspective
       id="perspective6807"
       inkscape:persp3d-origin="29.116032 : 19.410688 : 1"
       inkscape:vp_z="58.232063 : 29.116032 : 1"
       inkscape:vp_y="0 : 1000 : 0"
       inkscape:vp_x="0 : 29.116032 : 1"
       sodipodi:type="inkscape:persp3d" />
    <inkscape:perspective
       id="perspective6954"
       inkscape:persp3d-origin="290 : 193.33333 : 1"
       inkscape:vp_z="580 : 290 : 1"
       inkscape:vp_y="0 : 1000 : 0"
       inkscape:vp_x="0 : 290 : 1"
       sodipodi:type="inkscape:persp3d" />
    <inkscape:perspective
       id="perspective2541"
       inkscape:persp3d-origin="240 : 160 : 1"
       inkscape:vp_z="480 : 240 : 1"
       inkscape:vp_y="0 : 1000 : 0"
       inkscape:vp_x="0 : 240 : 1"
       sodipodi:type="inkscape:persp3d" />
    <inkscape:perspective
       id="perspective2750"
       inkscape:persp3d-origin="215 : 143.33333 : 1"
       inkscape:vp_z="430 : 215 : 1"
       inkscape:vp_y="0 : 1000 : 0"
       inkscape:vp_x="0 : 215 : 1"
       sodipodi:type="inkscape:persp3d" />
    <inkscape:perspective
       id="perspective3730"
       inkscape:persp3d-origin="88.929146 : 101.19778 : 1"
       inkscape:vp_z="177.85829 : 151.79668 : 1"
       inkscape:vp_y="0 : 1000 : 0"
       inkscape:vp_x="0 : 151.79668 : 1"
       sodipodi:type="inkscape:persp3d" />
  </defs>
  <path
     style="color:#000000;font-style:normal;font-variant:normal;font-weight:normal;font-stretch:normal;font-size:medium;line-height:normal;font-family:Sans;-inkscape-font-specification:Sans;text-indent:0;text-align:start;text-decoration:none;text-decoration-line:none;letter-spacing:normal;word-spacing:normal;text-transform:none;direction:ltr;block-progression:tb;writing-mode:lr-tb;baseline-shift:baseline;text-anchor:start;clip-rule:nonzero;display:inline;overflow:visible;visibility:visible;opacity:0.81199999;isolation:auto;mix-blend-mode:normal;color-interpolation:sRGB;color-interpolation-filters:linearRGB;solid-color:#000000;solid-opacity:1;fill:#ebe7e4;fill-opacity:1;fill-rule:nonzero;stroke:none;stroke-width:0.78325456;stroke-linecap:butt;stroke-linejoin:miter;stroke-miterlimit:4;stroke-dasharray:none;stroke-dashoffset:0;stroke-opacity:1;marker:none;color-rendering:auto;image-rendering:auto;shape-rendering:auto;text-rendering:auto;enable-background:accumulate"
     d="m 3.9293745,4.3735023 c 0.1161287,-2.91e-4 -0.013609,-0.05451 -0.32145,0.026788 -0.1835451,0.048522 -0.6760649,0.125677 -1.0715,0.5089625 -0.3958245,0.3836783 -0.5136803,0.8621367 -0.589325,1.17865 -1.348e-4,0.00893 -1.348e-4,0.017859 0,0.026788 -0.071404,0.3086235 -0.026548,0.3903741 -0.026787,0.2946625 l 0,4.5270877 c -0.00599,0.404014 0.1218175,0.680636 0.375025,0.937562 0.2013302,0.204095 0.5575771,0.401813 0.9375625,0.401813 0.3799743,0 0.6944075,-0.128107 0.96435,-0.401813 0.2539237,-0.257409 0.3807322,-0.534617 0.375025,-0.937562 l 0,-3.9377627 0.8572,0 c -0.1876612,0.3161197 -0.3552582,0.6624231 -0.4018125,0.8572 -0.011141,0.035114 -0.020094,0.070924 -0.026788,0.10715 0.00112,-0.00914 -5.646e-4,0.08955 0,0.080362 5.645e-4,-0.00919 0,0.089568 0,0.080362 0,-0.00614 -7.391e-4,0.027448 0,0.053575 3.695e-4,0.013063 1.881e-4,0.02985 0,0.026787 -5.646e-4,-0.00919 0.00112,0.089498 0,0.080363 l 0,4.3127877 c 0.00123,-0.0082 -7.684e-4,0.08864 0,0.08036 l 0,0.02679 c -0.00132,0.0204 -1.542e-4,0.03095 0,0.02679 3.083e-4,-0.0083 1.527e-4,0.08868 0,0.08036 -1.528e-4,-0.0083 6.133e-4,0.08866 0,0.08036 -6.134e-4,-0.0083 0.00107,0.08861 0,0.08036 -0.00107,-0.0082 0.00153,0.06175 0,0.05358 -0.00153,-0.0081 0.028766,0.08844 0.026788,0.08036 -0.00198,-0.0081 0.02921,0.08832 0.026787,0.08036 -0.00243,-0.008 0.029647,0.06138 0.026788,0.05357 -0.00286,-0.0078 0.030076,0.088 0.026788,0.08036 -0.00329,-0.0076 0.030494,0.06102 0.026788,0.05358 -0.0037,-0.0075 0.030901,0.08759 0.026788,0.08036 -0.00411,-0.0072 0.031295,0.06056 0.026787,0.05357 -0.00451,-0.007 0.058463,0.0603 0.053575,0.05358 -0.00489,-0.0067 0.058828,0.08681 0.053575,0.08036 -0.00525,-0.0064 0.03239,0.05972 0.026787,0.05357 -0.00561,-0.0062 0.059509,0.0594 0.053575,0.05358 -0.00593,-0.0058 0.059823,0.03227 0.053575,0.02679 -0.00625,-0.0055 0.060118,0.05871 0.053575,0.05358 -0.00654,-0.0051 0.08718,0.05834 0.080362,0.05358 -0.00681,-0.0048 0.060646,0.03117 0.053575,0.02679 -0.00707,-0.0044 0.060877,0.05755 0.053575,0.05357 -0.0073,-0.0039 0.087874,0.03035 0.080362,0.02679 -0.00751,-0.0036 0.061274,0.02993 0.053575,0.02679 -0.0077,-0.0032 0.088223,0.02951 0.080362,0.02679 -0.00786,-0.0027 0.061574,0.02907 0.053575,0.02679 -0.008,-0.0023 0.088475,0.02861 0.080362,0.02679 -0.00811,-0.0018 0.088564,0.0014 0.080362,0 -0.0082,-0.0014 0.088628,9.43e-4 0.080363,0 -0.00826,-9.43e-4 0.061879,0.02725 0.053575,0.02679 -0.00831,-4.61e-4 0.088679,0 0.080363,0 -0.00831,0 0.088666,-4.61e-4 0.080362,0 -0.00831,4.62e-4 0.061841,-0.0277 0.053575,-0.02679 -0.00826,9.43e-4 0.088564,-0.0014 0.080362,0 -0.0082,0.0014 0.088476,-0.0018 0.080362,0 -0.00811,0.0018 0.088362,-0.02907 0.080363,-0.02679 -0.008,0.0023 0.061435,-0.0295 0.053575,-0.02679 -0.00786,0.0027 0.088061,-0.02993 0.080363,-0.02679 -0.0077,0.0032 0.061087,-0.03035 0.053575,-0.02679 -0.00751,0.0036 0.087665,-0.03076 0.080363,-0.02679 -0.0073,0.0039 0.060646,-0.05795 0.053575,-0.05357 -0.00707,0.0044 0.060392,-0.03155 0.053575,-0.02679 -0.00681,0.0048 0.086905,-0.05871 0.080362,-0.05358 -0.00654,0.0051 0.059823,-0.05906 0.053575,-0.05358 -0.00625,0.0055 0.059509,-0.03262 0.053575,-0.02679 -0.00593,0.0058 0.059178,-0.05972 0.053575,-0.05358 -0.00561,0.0062 0.03204,-0.06002 0.026788,-0.05357 -0.00525,0.0064 0.058463,-0.08709 0.053575,-0.08036 -0.00489,0.0067 0.058083,-0.06056 0.053575,-0.05358 -0.00451,0.007 0.030901,-0.0608 0.026788,-0.05357 -0.00411,0.0072 0.030494,-0.08781 0.026787,-0.08036 -0.0037,0.0075 0.030076,-0.06121 0.026788,-0.05358 -0.00329,0.0076 0.029647,-0.08817 0.026788,-0.08036 -0.00286,0.0078 0.02921,-0.06153 0.026788,-0.05357 -0.00243,0.008 0.028766,-0.08844 0.026788,-0.08036 -0.00198,0.0081 0.028315,-0.08854 0.026787,-0.08036 -0.00153,0.0081 0.00107,-0.06182 0,-0.05358 -0.00107,0.0082 6.133e-4,-0.08866 0,-0.08036 -6.134e-4,0.0083 1.527e-4,-0.08868 0,-0.08036 -1.528e-4,0.0083 -3.084e-4,-0.08867 0,-0.08036 1.541e-4,0.0041 0.00132,-0.0063 0,-0.02679 -0.00132,-0.0204 -3.842e-4,-0.03093 0,-0.02679 7.684e-4,0.0083 -0.00123,-0.08859 0,-0.08036 l 0,-3.8306127 1.5001,0 0,2.2769377 c -0.00599,0.404073 0.1218507,0.680642 0.375025,0.937562 0.2013082,0.204072 0.5575875,0.401813 0.9375625,0.401813 0.380018,0 0.694432,-0.12816 0.96435,-0.401813 0.253967,-0.257454 0.380701,-0.534694 0.375025,-0.937562 l 0,-2.2769377 0.4286,0 0,4.0449127 c 0,0 0.04699,1.30762 1.357528,1.316443 1.310539,0.0088 1.294434,-1.316443 1.294434,-1.316443 l 0,-4.5538752 c 1.35e-4,-0.00893 1.35e-4,-0.017859 0,-0.026787 4.79e-4,0.011743 -0.0014,-0.1188195 0,-0.10715 0.0014,0.01167 -0.02909,-0.1186745 -0.02679,-0.10715 0.0023,0.011524 -0.02998,-0.1184587 -0.02679,-0.10715 0.0019,0.00679 0.01017,-0.022184 0,-0.053575 -8.51e-4,-0.00265 -0.02593,0.00268 -0.02679,0 -0.0016,-0.00499 0.0016,-0.021665 0,-0.026788 -0.07957,-0.2498173 -0.194683,-0.6593208 -0.53575,-1.017925 -0.352058,-0.3701602 -0.811584,-0.5396353 -1.205438,-0.6429 -0.03511,-0.011141 -0.07092,-0.020094 -0.10715,-0.026788 0.0091,0.00112 -0.08955,-5.645e-4 -0.08036,0 0.0092,5.646e-4 -0.08957,0 -0.08036,0 0.0062,0 -0.02745,-7.39e-4 -0.05358,0 l -0.10715,0 -0.883987,0 c 1.35e-4,-0.00893 1.35e-4,-0.017859 0,-0.026788 C 11.650424,5.8839732 11.53986,5.4404792 11.161999,5.0431898 10.809943,4.6730324 10.350413,4.5035573 9.956562,4.4002898 9.6518658,4.3208667 9.5255184,4.373754 9.635112,4.3735023 Z"
     id="path4141"
     inkscape:connector-curvature="0"
     sodipodi:nodetypes="ccccccccsccccccsssccccccscccccccccccccccccccccccccccscccccccccccccccccccccccccccsccccccccsccccczcccscccccscccsccccsccc" />
</svg>

<svg width="16" height="16" viewBox="0 0 16 16" fill="none" xmlns="http://www.w3.org/2000/svg">
<path opacity="0.812" d="M3.92937 4.37351C4.0455 4.37322 3.91577 4.319 3.60793 4.4003C3.42438 4.44882 2.93186 4.52597 2.53642 4.90926C2.1406 5.29294 2.02274 5.7714 1.9471 6.08791C1.94697 6.09684 1.94697 6.10577 1.9471 6.1147C1.8757 6.42332 1.92055 6.50507 1.92031 6.40936V10.9364C1.91432 11.3405 2.04213 11.6171 2.29534 11.874C2.49667 12.0781 2.85292 12.2758 3.2329 12.2758C3.61287 12.2758 3.92731 12.1477 4.19725 11.874C4.45117 11.6166 4.57798 11.3394 4.57228 10.9364V6.99868H5.42948C5.24181 7.3148 5.07422 7.66111 5.02766 7.85588C5.01652 7.891 5.00757 7.92681 5.00087 7.96303C5.00199 7.95389 5.00031 8.05258 5.00087 8.0434C5.00144 8.03421 5.00087 8.13296 5.00087 8.12376C5.00087 8.11762 5.00014 8.15121 5.00087 8.17733C5.00124 8.1904 5.00106 8.20718 5.00087 8.20412C5.00031 8.19493 5.00199 8.29362 5.00087 8.28448V12.5973C5.0021 12.5891 5.00011 12.6859 5.00087 12.6776V12.7044C4.99955 12.7248 5.00072 12.7354 5.00087 12.7312C5.00118 12.7229 5.00103 12.8199 5.00087 12.8116C5.00072 12.8033 5.00149 12.9002 5.00087 12.8919C5.00026 12.8836 5.00194 12.9805 5.00087 12.9723C4.9998 12.9641 5.0024 13.034 5.00087 13.0259C4.99934 13.0178 5.02964 13.1143 5.02766 13.1062C5.02568 13.0981 5.05687 13.1946 5.05445 13.1866C5.05202 13.1786 5.0841 13.248 5.08124 13.2402C5.07838 13.2324 5.11131 13.3282 5.10803 13.3205C5.10474 13.3129 5.13852 13.3815 5.13481 13.3741C5.13111 13.3666 5.16572 13.4617 5.1616 13.4545C5.15749 13.4473 5.1929 13.515 5.18839 13.508C5.18388 13.501 5.24685 13.5683 5.24196 13.5616C5.23707 13.5549 5.30079 13.6484 5.29554 13.642C5.29029 13.6356 5.32793 13.7017 5.32233 13.6955C5.31672 13.6893 5.38183 13.7549 5.3759 13.7491C5.36997 13.7433 5.43572 13.7814 5.42948 13.7759C5.42323 13.7704 5.48959 13.8346 5.48305 13.8295C5.47651 13.8244 5.57023 13.8878 5.56341 13.8831C5.5566 13.8783 5.62406 13.9142 5.61699 13.9099C5.60992 13.9055 5.67786 13.9674 5.67056 13.9634C5.66326 13.9595 5.75844 13.9938 5.75093 13.9902C5.74342 13.9866 5.8122 14.0202 5.8045 14.017C5.7968 14.0138 5.89272 14.0465 5.88486 14.0438C5.877 14.0411 5.94644 14.0729 5.93844 14.0706C5.93044 14.0683 6.02691 14.0992 6.0188 14.0974C6.01069 14.0956 6.10736 14.0988 6.09916 14.0974C6.09096 14.096 6.18779 14.0983 6.17952 14.0974C6.17126 14.0964 6.2414 14.1246 6.2331 14.1242C6.22479 14.1237 6.32178 14.1242 6.31346 14.1242C6.30515 14.1242 6.40213 14.1237 6.39382 14.1242C6.38551 14.1246 6.45567 14.0965 6.4474 14.0974C6.43914 14.0983 6.53596 14.096 6.52776 14.0974C6.51956 14.0988 6.61624 14.0956 6.60812 14.0974C6.60001 14.0992 6.69649 14.0683 6.68849 14.0706C6.68049 14.0729 6.74992 14.0411 6.74206 14.0438C6.7342 14.0465 6.83012 14.0139 6.82242 14.017C6.81472 14.0202 6.88351 13.9867 6.876 13.9902C6.86849 13.9938 6.96366 13.9595 6.95636 13.9634C6.94906 13.9673 7.01701 13.9055 7.00994 13.9099C7.00287 13.9143 7.07033 13.8783 7.06351 13.8831C7.0567 13.8879 7.15042 13.8244 7.14387 13.8295C7.13733 13.8346 7.2037 13.7704 7.19745 13.7759C7.1912 13.7814 7.25696 13.7433 7.25102 13.7491C7.24509 13.7549 7.3102 13.6894 7.3046 13.6955C7.29899 13.7017 7.33664 13.6355 7.33139 13.642C7.32614 13.6484 7.38985 13.5549 7.38496 13.5616C7.38007 13.5683 7.44305 13.5011 7.43854 13.508C7.43403 13.515 7.46944 13.4472 7.46532 13.4545C7.46121 13.4617 7.49582 13.3667 7.49211 13.3741C7.48841 13.3816 7.52219 13.3129 7.5189 13.3205C7.51561 13.3281 7.54855 13.2324 7.54569 13.2402C7.54283 13.248 7.5749 13.1786 7.57248 13.1866C7.57005 13.1946 7.60124 13.0982 7.59926 13.1062C7.59728 13.1143 7.62758 13.0177 7.62605 13.0259C7.62452 13.034 7.62712 12.9641 7.62605 12.9723C7.62498 12.9805 7.62666 12.8836 7.62605 12.8919C7.62544 12.9002 7.6262 12.8033 7.62605 12.8116C7.6259 12.8199 7.62574 12.7229 7.62605 12.7312C7.62621 12.7353 7.62737 12.7249 7.62605 12.7044C7.62473 12.684 7.62567 12.6735 7.62605 12.6776C7.62682 12.6859 7.62482 12.589 7.62605 12.5973V8.76666H9.12615V11.0436C9.12016 11.4477 9.248 11.7242 9.50118 11.9812C9.70248 12.1852 10.0588 12.383 10.4387 12.383C10.8188 12.383 11.1332 12.2548 11.4031 11.9812C11.6571 11.7237 11.7838 11.4465 11.7781 11.0436V8.76666H12.2067V12.8116C12.2067 12.8116 12.2537 14.1192 13.5642 14.128C14.8748 14.1368 14.8587 12.8116 14.8587 12.8116V8.25769C14.8588 8.24876 14.8588 8.23984 14.8587 8.23091C14.8592 8.24265 14.8573 8.11209 14.8587 8.12376C14.8601 8.13543 14.8296 8.00508 14.8319 8.01661C14.8342 8.02813 14.8019 7.89815 14.8051 7.90946C14.807 7.91625 14.8153 7.88727 14.8051 7.85588C14.8042 7.85323 14.7792 7.85856 14.7783 7.85588C14.7767 7.85089 14.7799 7.83422 14.7783 7.8291C14.6987 7.57928 14.5836 7.16977 14.2426 6.81117C13.8905 6.44101 13.431 6.27153 13.0371 6.16827C13.002 6.15713 12.9662 6.14818 12.93 6.14148C12.9391 6.1426 12.8404 6.14092 12.8496 6.14148C12.8588 6.14205 12.76 6.14148 12.7692 6.14148C12.7754 6.14148 12.7418 6.14074 12.7157 6.14148H12.6085H11.7245C11.7247 6.13255 11.7247 6.12362 11.7245 6.11469C11.6504 5.88398 11.5399 5.44048 11.162 5.0432C10.8099 4.67304 10.3504 4.50356 9.95656 4.4003C9.65187 4.32087 9.52552 4.37376 9.63511 4.37351H3.92937Z" fill="#EBE7E4"/>
</svg>
